TrafficJam2023/images/icons/box-opened.svg

<svg width="50" height="44" viewBox="0 0 50 44" fill="none" xmlns="http://www.w3.org/2000/svg">
<path d="M25 6.44444L40.3333 15.3333M25 6.44444L9.66667 15.3333M25 6.44444L32.6667 2L48 10.8889L40.3333 15.3333M40.3333 15.3333V33.1111L25 42M40.3333 15.3333L25 24.2222M25 42L9.66667 33.1111V24.2222L17.3333 28.6667M25 42V24.2222M9.66667 15.3333L25 24.2222M9.66667 15.3333L2 19.7778L17.3333 28.6667M25 24.2222L17.3333 28.6667" stroke="#FCFDFD" stroke-width="2"/>
<g filter="url(#filter0_i_258_323)">
<path d="M25 6L40.3333 14.8889L25 23.7778L9.66663 14.8889L25 6Z" fill="#D9D9D9"/>
</g>
<path d="M25 6L40.3333 14.8889L25 23.7778L9.66663 14.8889L25 6Z" stroke="#FCFDFD" stroke-width="2"/>
<defs>
<filter id="filter0_i_258_323" x="7.67273" y="4.84412" width="34.6544" height="20.0895" filterUnits="userSpaceOnUse" color-interpolation-filters="sRGB">
<feFlood flood-opacity="0" result="BackgroundImageFix"/>
<feBlend mode="normal" in="SourceGraphic" in2="BackgroundImageFix" result="shape"/>
<feColorMatrix in="SourceAlpha" type="matrix" values="0 0 0 0 0 0 0 0 0 0 0 0 0 0 0 0 0 0 127 0" result="hardAlpha"/>
<feOffset/>
<feGaussianBlur stdDeviation="10"/>
<feComposite in2="hardAlpha" operator="arithmetic" k2="-1" k3="1"/>
<feColorMatrix type="matrix" values="0 0 0 0 0 0 0 0 0 0.88 0 0 0 0 1 0 0 0 1 0"/>
<feBlend mode="normal" in2="shape" result="effect1_innerShadow_258_323"/>
</filter>
</defs>
</svg>

<svg xmlns="http://www.w3.org/2000/svg" width="50" height="44" fill="none" viewBox="0 0 50 44"><path stroke="#FCFDFD" stroke-width="2" d="m25 6.444 15.333 8.89M25 6.443l-15.333 8.89M25 6.443 32.667 2 48 10.889l-7.667 4.444m0 0v17.778L25 42m15.333-26.667L25 24.223M25 42 9.667 33.111v-8.889l7.666 4.445M25 42V24.222M9.667 15.333 25 24.223m-15.333-8.89L2 19.778l15.333 8.889M25 24.222l-7.667 4.445"/><g filter="url(#a)"><path fill="#D9D9D9" d="m25 6 15.333 8.889L25 23.778l-15.333-8.89L25 6Z"/></g><path stroke="#FCFDFD" stroke-width="2" d="m25 6 15.333 8.889L25 23.778l-15.333-8.89L25 6Z"/><defs><filter id="a" width="34.6544" height="20.0895" x="7.67273" y="4.84412" color-interpolation-filters="sRGB" filterUnits="userSpaceOnUse"><feFlood flood-opacity="0" result="BackgroundImageFix"/><feBlend in="SourceGraphic" in2="BackgroundImageFix" result="shape"/><feColorMatrix in="SourceAlpha" result="hardAlpha" values="0 0 0 0 0 0 0 0 0 0 0 0 0 0 0 0 0 0 127 0"/><feOffset/><feGaussianBlur stdDeviation="10"/><feComposite in2="hardAlpha" k2="-1" k3="1" operator="arithmetic"/><feColorMatrix values="0 0 0 0 0 0 0 0 0 0.88 0 0 0 0 1 0 0 0 1 0"/><feBlend in2="shape" result="effect1_innerShadow_258_323"/></filter></defs></svg>
